icons/svg/tourist/war_memorial.svg

<?xml version="1.0" encoding="UTF-8" standalone="no"?>
<!-- Created with Inkscape (http://www.inkscape.org/) -->

<svg
   xmlns:dc="http://purl.org/dc/elements/1.1/"
   xmlns:cc="http://creativecommons.org/ns#"
   xmlns:rdf="http://www.w3.org/1999/02/22-rdf-syntax-ns#"
   xmlns:svg="http://www.w3.org/2000/svg"
   xmlns="http://www.w3.org/2000/svg"
   xmlns:sodipodi="http://sodipodi.sourceforge.net/DTD/sodipodi-0.dtd"
   xmlns:inkscape="http://www.inkscape.org/namespaces/inkscape"
   version="1.0"
   width="580"
   height="580"
   id="svg2"
   sodipodi:version="0.32"
   inkscape:version="0.91 r"
   sodipodi:docname="war_memorial.svg"
   inkscape:output_extension="org.inkscape.output.svg.inkscape">
  <sodipodi:namedview
     inkscape:window-height="1004"
     inkscape:window-width="1920"
     inkscape:pageshadow="2"
     inkscape:pageopacity="0.0"
     guidetolerance="10.0"
     gridtolerance="10.0"
     objecttolerance="10.0"
     borderopacity="1.0"
     bordercolor="#666666"
     pagecolor="#ffffff"
     id="base"
     inkscape:zoom="0.081465518"
     inkscape:cx="1585.4217"
     inkscape:cy="632.10274"
     inkscape:window-x="1680"
     inkscape:window-y="0"
     inkscape:current-layer="svg2"
     showgrid="false"
     inkscape:window-maximized="1" />
  <metadata
     id="metadata2975">
    <rdf:RDF>
      <cc:Work
         rdf:about="">
        <dc:format>image/svg+xml</dc:format>
        <dc:type
           rdf:resource="http://purl.org/dc/dcmitype/StillImage" />
        <cc:license
           rdf:resource="http://web.resource.org/cc/PublicDomain" />
        <dc:language>en</dc:language>
        <dc:title />
      </cc:Work>
    </rdf:RDF>
  </metadata>
  <defs
     id="defs4">
    <inkscape:perspective
       sodipodi:type="inkscape:persp3d"
       inkscape:vp_x="0 : 290 : 1"
       inkscape:vp_y="0 : 1000 : 0"
       inkscape:vp_z="580 : 290 : 1"
       inkscape:persp3d-origin="290 : 193.33333 : 1"
       id="perspective2441" />
    <inkscape:perspective
       id="perspective3452"
       inkscape:persp3d-origin="30 : 20 : 1"
       inkscape:vp_z="60 : 30 : 1"
       inkscape:vp_y="0 : 1000 : 0"
       inkscape:vp_x="0 : 30 : 1"
       sodipodi:type="inkscape:persp3d" />
    <symbol
       viewBox="244.5 110 489 219.9"
       id="symbol-university">
      <path
         id="path4460"
         d="M79,43l57,119c0,0,21-96,104-96s124,106,124,106l43-133l82-17L0,17L79,43z" />
      <path
         id="path4462"
         d="M94,176l-21,39"
         stroke-width="20"
         stroke="#000000"
         fill="none" />
      <path
         id="path4464"
         d="M300,19c0,10.5-22.6,19-50.5,19S199,29.5,199,19s22.6-19,50.5-19S300,8.5,300,19z" />
      <path
         id="path4466"
         d="M112,216l-16-38L64,88c0,0-9-8-4-35s16-24,16-24"
         stroke-width="20"
         stroke="#000000"
         ill="none" />
    </symbol>
    <inkscape:perspective
       id="perspective4471"
       inkscape:persp3d-origin="372.04724 : 350.78739 : 1"
       inkscape:vp_z="744.09448 : 526.18109 : 1"
       inkscape:vp_y="0 : 1000 : 0"
       inkscape:vp_x="0 : 526.18109 : 1"
       sodipodi:type="inkscape:persp3d" />
    <inkscape:perspective
       id="perspective4668"
       inkscape:persp3d-origin="6 : 4 : 1"
       inkscape:vp_z="12 : 6 : 1"
       inkscape:vp_y="0 : 1000 : 0"
       inkscape:vp_x="0 : 6 : 1"
       sodipodi:type="inkscape:persp3d" />
    <inkscape:perspective
       id="perspective5915"
       inkscape:persp3d-origin="0.5 : 0.33333333 : 1"
       inkscape:vp_z="1 : 0.5 : 1"
       inkscape:vp_y="0 : 1000 : 0"
       inkscape:vp_x="0 : 0.5 : 1"
       sodipodi:type="inkscape:persp3d" />
  </defs>
  <g
     id="g1327"
     transform="translate(0.76719576,-1.5343915)">
    <path
       d="M 66.275,1.768 C 24.94,1.768 1.704,23.139 1.704,66.804 l 0,450.123 c 0,40.844 20.895,62.229 62.192,62.229 l 452.024,0 c 41.307,0 62.229,-20.315 62.229,-62.229 l 0,-450.123 c 0,-42.601 -20.922,-65.036 -63.521,-65.036 -0.004,0 -448.495,-0.143 -448.353,0 z"
       style="fill:#111111;stroke:#eeeeee;stroke-width:3.40799999"
       id="path1329"
       inkscape:connector-curvature="0" />
  </g>
  <path
     style="fill:#ffffff;fill-opacity:1"
     d="m 395.79611,458.22391 c -63.61882,-14.10189 -76.07212,-15.09731 -113.49496,-9.07198 -34.54552,5.5621 -65.63203,5.17665 -118.35609,-1.46749 -42.37546,-5.34006 -85.602771,-16.93318 -112.549049,-30.18456 -13.014102,-6.39997 -17.257516,-10.25151 -17.257516,-15.6638 0,-6.84188 2.771389,-10.99352 14.536103,-21.77543 18.961449,-17.37749 23.981486,-28.54194 39.584924,-88.03582 14.313938,-54.57721 17.344548,-62.29484 34.631188,-88.19004 27.52676,-41.23488 74.45557,-72.4286 125.10379,-83.15687 14.55801,-3.08368 69.45297,-3.08368 84.01099,0 38.2002,8.09156 72.9886,26.74678 101.65603,54.51286 20.06482,19.43399 35.92966,43.28454 46.31095,69.62213 22.9352,41.56923 9.18802,130.44416 49.93344,148.2569 12.03772,5.10423 15.9556,9.5839 15.9556,18.24359 0,6.42654 -0.64646,7.85154 -5.85506,12.9063 -7.60447,7.3799 -17.04647,12.42773 -38.74951,20.71603 -32.55985,12.43448 -46.79059,15.85707 -68.69481,16.52165 -16.80975,0.50998 -21.89586,0.0627 -36.76602,-3.23347 z M 237.61873,347.16415 c 0.25467,-34.08732 -3.4616,-28.19801 35.40773,-56.1107 12.69523,-9.11667 23.0822,-17.34015 23.0822,-18.27449 0,-0.93432 -9.97483,-3.59497 -22.16629,-5.91252 -12.19149,-2.3176 -25.57478,-5.59123 -29.74064,-7.27477 -8.01029,-3.23714 -9.55532,-7.52482 -14.90403,-41.36051 -1.84267,-11.6568 -3.99429,-17.03565 -5.85759,-14.64384 -18.38157,23.59479 -32.69632,42.90922 -34.85118,47.0235 -3.321,6.34077 -15.79677,10.19179 -33.86533,10.45365 -7.24898,0.10503 -17.76191,0.91981 -23.36203,1.8106 l -10.18211,1.61964 9.71491,14.37816 c 5.34321,7.90798 12.42472,19.60913 15.73675,26.00256 l 6.02186,11.62438 -13.31303,26.54743 c -7.32215,14.60108 -12.75111,27.10933 -12.06436,27.79609 0.68677,0.68673 13.99616,-5.05447 29.57641,-12.75819 20.57809,-10.17494 29.8981,-13.59906 34.06782,-12.51624 3.157,0.81979 13.82773,8.51978 23.7127,17.11109 9.88497,8.59129 19.05103,15.26276 20.36905,14.82544 1.40865,-0.46736 2.48735,-12.97326 2.61716,-30.34128 z"
     id="path5819"
     inkscape:connector-curvature="0"
     sodipodi:nodetypes="sssssssssssccssssssssssssssscsscssssscs" />
</svg>

<svg width="580" height="580" viewBox="0 0 580 580" fill="none" xmlns="http://www.w3.org/2000/svg">
<g clip-path="url(#clip0)">
<path d="M67.0427 0.233477C25.7077 0.233477 2.47168 21.6045 2.47168 65.2695V515.392C2.47168 556.236 23.3667 577.621 64.6637 577.621H516.688C557.995 577.621 578.917 557.306 578.917 515.392V65.2695C578.917 22.6685 557.995 0.233477 515.396 0.233477C515.392 0.233477 66.9007 0.0904774 67.0427 0.233477V0.233477Z" fill="#111111" stroke="#EEEEEE" stroke-width="3.408"/>
<path d="M395.796 458.224C332.177 444.122 319.724 443.127 282.301 449.152C247.756 454.714 216.669 454.329 163.945 447.685C121.57 442.344 78.3425 430.751 51.3962 417.5C38.3821 411.1 34.1387 407.248 34.1387 401.836C34.1387 394.994 36.9101 390.843 48.6748 380.061C67.6362 362.683 72.6563 351.519 88.2597 292.025C102.574 237.448 105.604 229.73 122.891 203.835C150.418 162.6 197.346 131.406 247.995 120.678C262.553 117.594 317.448 117.594 332.006 120.678C370.206 128.77 404.994 147.425 433.662 175.191C453.727 194.625 469.591 218.475 479.973 244.813C502.908 286.382 489.161 375.257 529.906 393.07C541.944 398.174 545.862 402.654 545.862 411.313C545.862 417.74 545.215 419.165 540.007 424.22C532.402 431.6 522.96 436.648 501.257 444.936C468.697 457.37 454.467 460.793 432.562 461.457C415.753 461.967 410.666 461.52 395.796 458.224ZM237.619 347.164C237.874 313.077 234.157 318.966 273.027 291.054C285.722 281.937 296.109 273.713 296.109 272.779C296.109 271.845 286.134 269.184 273.943 266.867C261.751 264.549 248.368 261.275 244.202 259.592C236.192 256.355 234.647 252.067 229.298 218.231C227.455 206.574 225.304 201.196 223.44 203.587C205.059 227.182 190.744 246.497 188.589 250.611C185.268 256.952 172.792 260.803 154.724 261.065C147.475 261.17 136.962 261.984 131.362 262.875L121.18 264.495L130.895 278.873C136.238 286.781 143.319 298.482 146.631 304.876L152.653 316.5L139.34 343.047C132.018 357.648 126.589 370.157 127.276 370.843C127.963 371.53 141.272 365.789 156.852 358.085C177.43 347.91 186.75 344.486 190.92 345.569C194.077 346.389 204.748 354.089 214.633 362.68C224.518 371.271 233.684 377.943 235.002 377.506C236.41 377.038 237.489 364.532 237.619 347.164V347.164Z" fill="white"/>
</g>
<defs>
<clipPath id="clip0">
<path d="M0 0H580V580H0V0Z" fill="white"/>
</clipPath>
</defs>
</svg>
